X: 1
T: Marian McCarthy
M: 4/4
L: 1/8
R: strathspey
K: Amaj
|:A>B|c>B c>A F<A E>c|d>c (3Bdf e>c (3Afg|a>f e>c B>A F>A|(3cBA e>c B2 A>B|
c>B (3cBA F<A E>c|d>c (3Bdf e>c (3Afg|a>f e>c B>A F>E|F<A A>B A2:|
|:zc|e2 (3fga e>c A2|(3fga (3f/g/af e>c A>c|E>A (3cBA e>A c>A|E>A (3cBA B2 B>d|
f2 (3fga e>c A2|(3fga (3f/g/af e>c (3ABc|d>e f>d c>d e>c|e<a c>A B2 B>c|
d>c (3def e2 c>A|E>A (3cBA B>A Ff/g/|a>f e>c B>A F>E|F<A A>B A2:|
